Newaita-dark/actions/24/document-edit-decrypt.svg

<svg height="24" viewBox="0 0 24 24" width="24" xmlns="http://www.w3.org/2000/svg"><g fill="#e0e0e0"><path d="m7.9375 4.15625v1.984375h1.984375v-1.984375zm1.984375 1.984375v1.984375h1.984375v-1.984375zm0 1.984375h-1.984375v1.984375h1.984375zm0 1.984375v1.984375h1.984375v-1.984375zm-1.984375-1.984375v-1.984375h-1.984375v1.984375zm-1.984375 1.984375v1.984375h1.984375v-1.984375zm0 0" fill-opacity=".392157"/><path d="m7.9375 12.09375v1.984375h1.984375v-1.984375zm1.984375 1.984375v1.984375h1.984375v-1.984375zm0 1.984375h-1.984375v1.984375h1.984375zm0 1.984375v1.984375h1.984375v-1.984375zm-1.984375-1.984375v-1.984375h-1.984375v1.984375zm-1.984375 1.984375v1.984375h1.984375v-1.984375zm0 0" fill-opacity=".392157"/><path d="m5.957031 2.171875c-1.097656 0-1.984375.886719-1.984375 1.984375v15.875c0 1.101562.886719 1.988281 1.984375 1.988281h11.910157c1.097656 0 1.984374-.886719 1.984374-1.988281v-8.929688h-.007812v-3.96875c0-.261718-.101562-.511718-.289062-.699218l-3.96875-3.96875c-.183594-.183594-.433594-.289063-.695313-.289063h-3.972656v-.003906zm4.960938 1.980469h3.5625l3.390625 3.390625v3.558593h-.003906v7.9375c0 .550782-.445313.992188-.992188.992188h-9.925781c-.546875 0-.992188-.441406-.992188-.992188v-13.890624c0-.550782.445313-.992188.992188-.992188h3.96875zm0 0"/></g></svg>

<?xml version="1.0" encoding="UTF-8"?>
<svg xmlns="http://www.w3.org/2000/svg" xmlns:xlink="http://www.w3.org/1999/xlink" width="24px" height="24px" viewBox="0 0 24 24" version="1.1">
<g id="surface1">
<path style=" stroke:none;fill-rule:nonzero;fill:rgb(87.843138%,87.843138%,87.843138%);fill-opacity:0.392157;" d="M 7.9375 4.15625 L 7.9375 6.140625 L 9.921875 6.140625 L 9.921875 4.15625 Z M 9.921875 6.140625 L 9.921875 8.125 L 11.90625 8.125 L 11.90625 6.140625 Z M 9.921875 8.125 L 7.9375 8.125 L 7.9375 10.109375 L 9.921875 10.109375 Z M 9.921875 10.109375 L 9.921875 12.09375 L 11.90625 12.09375 L 11.90625 10.109375 Z M 7.9375 8.125 L 7.9375 6.140625 L 5.953125 6.140625 L 5.953125 8.125 Z M 5.953125 10.109375 L 5.953125 12.09375 L 7.9375 12.09375 L 7.9375 10.109375 Z M 5.953125 10.109375 "/>
<path style=" stroke:none;fill-rule:nonzero;fill:rgb(87.843138%,87.843138%,87.843138%);fill-opacity:0.392157;" d="M 7.9375 12.09375 L 7.9375 14.078125 L 9.921875 14.078125 L 9.921875 12.09375 Z M 9.921875 14.078125 L 9.921875 16.0625 L 11.90625 16.0625 L 11.90625 14.078125 Z M 9.921875 16.0625 L 7.9375 16.0625 L 7.9375 18.046875 L 9.921875 18.046875 Z M 9.921875 18.046875 L 9.921875 20.03125 L 11.90625 20.03125 L 11.90625 18.046875 Z M 7.9375 16.0625 L 7.9375 14.078125 L 5.953125 14.078125 L 5.953125 16.0625 Z M 5.953125 18.046875 L 5.953125 20.03125 L 7.9375 20.03125 L 7.9375 18.046875 Z M 5.953125 18.046875 "/>
<path style=" stroke:none;fill-rule:nonzero;fill:rgb(87.843138%,87.843138%,87.843138%);fill-opacity:1;" d="M 5.957031 2.171875 C 4.859375 2.171875 3.972656 3.058594 3.972656 4.15625 L 3.972656 20.03125 C 3.972656 21.132812 4.859375 22.019531 5.957031 22.019531 L 17.867188 22.019531 C 18.964844 22.019531 19.851562 21.132812 19.851562 20.03125 L 19.851562 11.101562 L 19.84375 11.101562 L 19.84375 7.132812 C 19.84375 6.871094 19.742188 6.621094 19.554688 6.433594 L 15.585938 2.464844 C 15.402344 2.28125 15.152344 2.175781 14.890625 2.175781 L 10.917969 2.175781 L 10.917969 2.171875 Z M 10.917969 4.152344 L 14.480469 4.152344 L 17.871094 7.542969 L 17.871094 11.101562 L 17.867188 11.101562 L 17.867188 19.039062 C 17.867188 19.589844 17.421875 20.03125 16.875 20.03125 L 6.949219 20.03125 C 6.402344 20.03125 5.957031 19.589844 5.957031 19.039062 L 5.957031 5.148438 C 5.957031 4.597656 6.402344 4.15625 6.949219 4.15625 L 10.917969 4.15625 Z M 10.917969 4.152344 "/>
</g>
</svg>
